public/images/icons/re-icons/re-info-blank.svg

<svg width="14" height="14" viewBox="0 0 14 14" fill="none" xmlns="http://www.w3.org/2000/svg">
<path fill-rule="evenodd" clip-rule="evenodd" d="M0 7.00242C0 3.13534 3.13328 0 6.99895 0C8.85527 0 10.6355 0.737818 11.948 2.05106C13.2606 3.36428 13.9979 5.14535 13.9979 7.00242C13.9979 10.8695 10.8646 14.0048 6.99895 14.0048C3.13328 14.0048 0 10.8695 0 7.00242ZM6.99895 1C3.68607 1 1 3.68712 1 7.00242C1 10.3177 3.68607 13.0048 6.99895 13.0048C10.3118 13.0048 12.9979 10.3177 12.9979 7.00242C12.9979 5.41039 12.3658 3.88362 11.2407 2.75797C10.1157 1.63233 8.58988 1 6.99895 1ZM7.11643 2.85156C7.48493 2.85156 7.78365 3.16732 7.78365 3.55683C7.78365 3.94634 7.48493 4.2621 7.11643 4.2621C6.74794 4.2621 6.44922 3.94634 6.44922 3.55683C6.44922 3.16732 6.74794 2.85156 7.11643 2.85156ZM8.90615 10.8981H5.34766V9.84487H6.62871V6.66648H5.79247V5.61328H7.62954V9.84487H8.90615V10.8981Z" fill="#0084FF"/>
</svg>

<svg fill="none" viewBox="0 0 14 14"><path fill="#0084FF" fill-rule="evenodd" d="M0 7.002a7 7 0 0111.948-4.95 7.004 7.004 0 01-4.95 11.953A7 7 0 010 7.002zM6.999 1A6 6 0 001 7.002a6 6 0 005.999 6.003A6 6 0 0011.24 2.758 5.997 5.997 0 006.999 1zm.117 1.852c.369 0 .668.315.668.705 0 .39-.3.705-.668.705-.368 0-.667-.316-.667-.705 0-.39.299-.705.667-.705zm1.79 8.046H5.348V9.845h1.28V6.666h-.836V5.613H7.63v4.232h1.276v1.053z" clip-rule="evenodd"/></svg>
